X: 1
T: Fairy Jig, The
M: 9/8
L: 1/8
K: D mixolydian
|: A2 G Add Add | A2G Add f3 | A2 G Add Add | cAG A2G FED :||
| a2f add add | a2f add baf | a2f add add | cAG A2G FED|
| a2f add add | a2f add baf | a3 bag a2g | fed cAG FED ||
